packages/icons/web/dashboard_large.svg

<svg width="24" height="24" viewBox="0 0 24 24" fill="none" xmlns="http://www.w3.org/2000/svg">
<path fill-rule="evenodd" clip-rule="evenodd" d="M8 3H7.95984C7.29397 2.99999 6.73445 2.99997 6.27657 3.03738C5.79785 3.0765 5.34289 3.16144 4.91103 3.38148C4.25247 3.71703 3.71703 4.25247 3.38148 4.91103C3.16144 5.34289 3.0765 5.79785 3.03738 6.27657C2.99997 6.73445 2.99999 7.29397 3 7.95984V8V16V16.0402C2.99999 16.706 2.99997 17.2656 3.03738 17.7234C3.0765 18.2021 3.16144 18.6571 3.38148 19.089C3.71703 19.7475 4.25247 20.283 4.91103 20.6185C5.34289 20.8386 5.79785 20.9235 6.27657 20.9626C6.73443 21 7.29394 21 7.95979 21H7.95982H8H16H16.0402H16.0402C16.7061 21 17.2656 21 17.7234 20.9626C18.2021 20.9235 18.6571 20.8386 19.089 20.6185C19.7475 20.283 20.283 19.7475 20.6185 19.089C20.8386 18.6571 20.9235 18.2021 20.9626 17.7234C21 17.2656 21 16.7061 21 16.0402V16.0402V16V8V7.95982V7.95979C21 7.29394 21 6.73443 20.9626 6.27657C20.9235 5.79785 20.8386 5.34289 20.6185 4.91103C20.283 4.25247 19.7475 3.71703 19.089 3.38148C18.6571 3.16144 18.2021 3.0765 17.7234 3.03738C17.2656 2.99997 16.706 2.99999 16.0402 3H16H8ZM5.81901 5.16349C5.92194 5.11105 6.0844 5.05975 6.43944 5.03074C6.80615 5.00078 7.28343 5 8 5H16C16.7166 5 17.1939 5.00078 17.5606 5.03074C17.9156 5.05975 18.0781 5.11105 18.181 5.16349C18.4632 5.3073 18.6927 5.53677 18.8365 5.81901C18.889 5.92194 18.9403 6.0844 18.9693 6.43944C18.9992 6.80615 19 7.28343 19 8V16C19 16.7166 18.9992 17.1939 18.9693 17.5606C18.9403 17.9156 18.889 18.0781 18.8365 18.181C18.6927 18.4632 18.4632 18.6927 18.181 18.8365C18.0781 18.889 17.9156 18.9403 17.5606 18.9693C17.1939 18.9992 16.7166 19 16 19H8C7.28343 19 6.80615 18.9992 6.43944 18.9693C6.0844 18.9403 5.92194 18.889 5.81901 18.8365C5.53677 18.6927 5.3073 18.4632 5.16349 18.181C5.11105 18.0781 5.05975 17.9156 5.03074 17.5606C5.00078 17.1939 5 16.7166 5 16V8C5 7.28343 5.00078 6.80615 5.03074 6.43944C5.05975 6.0844 5.11105 5.92194 5.16349 5.81901C5.3073 5.53677 5.53677 5.3073 5.81901 5.16349ZM13 8C13 7.44772 12.5523 7 12 7C11.4477 7 11 7.44772 11 8V17H13V8ZM16.5 10C16.5 9.44772 16.0523 9 15.5 9C14.9477 9 14.5 9.44772 14.5 10V17H16.5V10ZM9.5 12C9.5 11.4477 9.05229 11 8.5 11C7.94772 11 7.5 11.4477 7.5 12V17H9.5V12Z" fill="#212933"/>
</svg>

<svg width="24" height="24" fill="none" xmlns="http://www.w3.org/2000/svg">
    <path fill-rule="evenodd" clip-rule="evenodd" d="M8 3h-.04c-.666 0-1.226 0-1.683.037-.48.04-.934.124-1.366.344a3.5 3.5 0 00-1.53 1.53c-.22.432-.304.887-.344 1.366C3 6.734 3 7.294 3 7.96v8.08c0 .666 0 1.226.037 1.683.04.48.124.934.344 1.366a3.5 3.5 0 001.53 1.53c.432.22.887.305 1.366.344C6.734 21 7.294 21 7.96 21h8.08c.666 0 1.226 0 1.683-.037.48-.04.934-.124 1.366-.345a3.5 3.5 0 001.53-1.529c.22-.432.305-.887.344-1.366.037-.457.037-1.017.037-1.683V7.96c0-.666 0-1.226-.037-1.683-.04-.48-.124-.934-.345-1.366a3.5 3.5 0 00-1.529-1.53c-.432-.22-.887-.304-1.366-.344C17.266 3 16.706 3 16.04 3H8zM5.819 5.163c.103-.052.265-.103.62-.132C6.806 5 7.283 5 8 5h8c.717 0 1.194 0 1.56.03.356.03.518.081.621.133a1.5 1.5 0 01.655.656c.053.103.104.265.133.62C19 6.806 19 7.283 19 8v8c0 .717 0 1.194-.03 1.56-.03.356-.081.518-.133.621a1.5 1.5 0 01-.656.655c-.103.053-.265.104-.62.133C17.194 19 16.717 19 16 19H8c-.717 0-1.194 0-1.56-.03-.356-.03-.518-.081-.621-.133a1.5 1.5 0 01-.656-.656c-.052-.103-.103-.265-.132-.62C5 17.194 5 16.717 5 16V8c0-.717 0-1.194.03-1.56.03-.356.081-.518.133-.621a1.5 1.5 0 01.656-.656zM13 8a1 1 0 10-2 0v9h2V8zm3.5 2a1 1 0 10-2 0v7h2v-7zm-7 2a1 1 0 10-2 0v5h2v-5z" fill="currentColor"/>
</svg>
